X:286
M:C|
L:1/8
K:D
e|fdgf e=cce|fdge d3g|fdgf e=cce|afge d3e|fdgf e=cce|fdge fdge|
fdgf e=cce|f/g/a e>f d3||

